x-pack/solutions/observability/plugins/observability_onboarding/public/icons/aws.svg

<svg width="25" height="24" viewBox="0 0 25 24" fill="none" xmlns="http://www.w3.org/2000/svg">
<g id="AWS" clip-path="url(#clip0_2818_20427)">
<g id="Group">
<path id="Vector" d="M7.76183 10.409C7.76183 10.7008 7.79376 10.9375 7.84963 11.111C7.91348 11.2846 7.9933 11.4739 8.10504 11.679C8.14495 11.7421 8.16091 11.8052 8.16091 11.8604C8.16091 11.9393 8.11302 12.0181 8.00926 12.097L7.50643 12.4283C7.43459 12.4757 7.36276 12.4993 7.29891 12.4993C7.21909 12.4993 7.13928 12.4599 7.05946 12.3889C6.94772 12.2706 6.85194 12.1444 6.77213 12.0181C6.69231 11.884 6.6125 11.7342 6.5247 11.5527C5.90214 12.2785 5.11996 12.6413 4.17814 12.6413C3.5077 12.6413 2.97294 12.452 2.58184 12.0734C2.19075 11.6947 1.99121 11.1899 1.99121 10.5589C1.99121 9.88836 2.23066 9.34409 2.71753 8.9339C3.2044 8.52372 3.8509 8.31863 4.67299 8.31863C4.94436 8.31863 5.22372 8.3423 5.51903 8.38174C5.81435 8.42118 6.11765 8.48428 6.4369 8.55528V7.97945C6.4369 7.37995 6.3092 6.96188 6.06177 6.71735C5.80637 6.47282 5.37537 6.3545 4.76079 6.3545C4.48144 6.3545 4.1941 6.38605 3.89879 6.45705C3.60347 6.52804 3.31614 6.61481 3.03679 6.72524C2.90908 6.78046 2.81331 6.81201 2.75743 6.82779C2.70156 6.84356 2.66166 6.85145 2.62973 6.85145C2.51799 6.85145 2.46212 6.77257 2.46212 6.60692V6.2204C2.46212 6.09419 2.47808 5.99954 2.51799 5.94432C2.5579 5.8891 2.62973 5.83389 2.74147 5.77867C3.02082 5.63668 3.35605 5.51836 3.74714 5.42371C4.13823 5.32116 4.55327 5.27383 4.99225 5.27383C5.94205 5.27383 6.63644 5.48681 7.08341 5.91277C7.52239 6.33872 7.74587 6.98555 7.74587 7.85324V10.409H7.76183ZM4.52135 11.608C4.78473 11.608 5.05611 11.5606 5.34344 11.466C5.63077 11.3713 5.88618 11.1978 6.10168 10.9611C6.22939 10.8113 6.32516 10.6456 6.37305 10.4563C6.42094 10.267 6.45287 10.0382 6.45287 9.77004V9.43874C6.2214 9.38353 5.97398 9.3362 5.71857 9.30464C5.46316 9.27309 5.21574 9.25732 4.96831 9.25732C4.43355 9.25732 4.04246 9.35986 3.77907 9.57284C3.51568 9.78582 3.38797 10.0856 3.38797 10.48C3.38797 10.8507 3.48375 11.1268 3.68329 11.3161C3.87484 11.5133 4.1542 11.608 4.52135 11.608ZM10.9305 12.4599C10.7868 12.4599 10.691 12.4362 10.6272 12.381C10.5633 12.3337 10.5075 12.2232 10.4596 12.0734L8.58393 5.97587C8.53604 5.81811 8.51209 5.71557 8.51209 5.66035C8.51209 5.53414 8.57595 5.46315 8.70365 5.46315H9.48584C9.63749 5.46315 9.74124 5.48681 9.79712 5.54203C9.86097 5.58936 9.90886 5.69979 9.95675 5.84966L11.2976 11.0716L12.5428 5.84966C12.5827 5.6919 12.6305 5.58936 12.6944 5.54203C12.7583 5.4947 12.87 5.46315 13.0137 5.46315H13.6522C13.8038 5.46315 13.9076 5.48681 13.9714 5.54203C14.0353 5.58936 14.0912 5.69979 14.1231 5.84966L15.3842 11.1347L16.765 5.84966C16.8128 5.6919 16.8687 5.58936 16.9246 5.54203C16.9884 5.4947 17.0922 5.46315 17.2359 5.46315H17.9781C18.1059 5.46315 18.1777 5.52625 18.1777 5.66035C18.1777 5.69979 18.1697 5.73923 18.1617 5.78656C18.1537 5.83389 18.1378 5.89699 18.1059 5.98376L16.1823 12.0813C16.1344 12.239 16.0786 12.3416 16.0147 12.3889C15.9508 12.4362 15.8471 12.4678 15.7114 12.4678H15.025C14.8733 12.4678 14.7696 12.4441 14.7057 12.3889C14.6419 12.3337 14.586 12.2311 14.5541 12.0734L13.317 6.98555L12.0878 12.0655C12.0479 12.2232 12 12.3258 11.9362 12.381C11.8723 12.4362 11.7606 12.4599 11.6169 12.4599H10.9305ZM21.1867 12.6729C20.7717 12.6729 20.3566 12.6255 19.9576 12.5309C19.5585 12.4362 19.2472 12.3337 19.0397 12.2153C18.912 12.1444 18.8242 12.0655 18.7923 11.9945C18.7603 11.9235 18.7444 11.8446 18.7444 11.7736V11.3713C18.7444 11.2057 18.8082 11.1268 18.9279 11.1268C18.9758 11.1268 19.0237 11.1347 19.0716 11.1505C19.1195 11.1662 19.1913 11.1978 19.2712 11.2293C19.5425 11.3477 19.8378 11.4423 20.1491 11.5054C20.4684 11.5685 20.7797 11.6001 21.0989 11.6001C21.6017 11.6001 21.9928 11.5133 22.2642 11.3398C22.5356 11.1662 22.6793 10.9138 22.6793 10.5904C22.6793 10.3695 22.6074 10.1881 22.4637 10.0382C22.3201 9.88836 22.0487 9.75427 21.6576 9.62806L20.5003 9.27309C19.9177 9.09167 19.4867 8.82347 19.2233 8.46851C18.9599 8.12143 18.8242 7.73492 18.8242 7.32474C18.8242 6.99344 18.896 6.70158 19.0397 6.44916C19.1834 6.19674 19.3749 5.97587 19.6144 5.80233C19.8538 5.62091 20.1252 5.48681 20.4444 5.39215C20.7637 5.2975 21.0989 5.25806 21.4501 5.25806C21.6257 5.25806 21.8093 5.26594 21.9849 5.28961C22.1684 5.31327 22.336 5.34483 22.5037 5.37638C22.6633 5.41582 22.8149 5.45526 22.9586 5.50259C23.1023 5.54992 23.214 5.59724 23.2938 5.64457C23.4056 5.70768 23.4854 5.77078 23.5333 5.84177C23.5812 5.90488 23.6051 5.99165 23.6051 6.10208V6.47282C23.6051 6.63847 23.5413 6.72524 23.4215 6.72524C23.3577 6.72524 23.2539 6.69369 23.1182 6.63058C22.6633 6.42549 22.1525 6.32295 21.5858 6.32295C21.1308 6.32295 20.7717 6.39394 20.5242 6.54381C20.2768 6.69369 20.1491 6.92244 20.1491 7.24585C20.1491 7.46672 20.2289 7.65603 20.3886 7.80591C20.5482 7.95578 20.8435 8.10566 21.2665 8.23975L22.3999 8.59472C22.9746 8.77614 23.3896 9.02856 23.637 9.35197C23.8845 9.67538 24.0042 10.0461 24.0042 10.4563C24.0042 10.7955 23.9323 11.1031 23.7967 11.3713C23.653 11.6395 23.4614 11.8762 23.214 12.0655C22.9666 12.2627 22.6713 12.4047 22.3281 12.5072C21.9689 12.6176 21.5938 12.6729 21.1867 12.6729Z" fill="#252F3E"/>
<g id="Group_2">
<path id="Vector_2" fill-rule="evenodd" clip-rule="evenodd" d="M22.6953 16.5068C20.0694 18.4236 16.2542 19.4412 12.9738 19.4412C8.37648 19.4412 4.23408 17.761 1.10534 14.9686C0.857912 14.7478 1.08139 14.448 1.37671 14.6216C4.76086 16.562 8.93519 17.7374 13.2532 17.7374C16.1664 17.7374 19.367 17.1379 22.3122 15.9073C22.7512 15.7101 23.1263 16.1913 22.6953 16.5068Z" fill="#FF9900"/>
<path id="Vector_3" fill-rule="evenodd" clip-rule="evenodd" d="M23.7885 15.2763C23.4532 14.8503 21.5696 15.0712 20.7156 15.1737C20.4602 15.2053 20.4203 14.9844 20.6517 14.8188C22.1523 13.7775 24.6185 14.0773 24.9059 14.4244C25.1932 14.7793 24.8261 17.2167 23.4213 18.3842C23.2058 18.5656 22.9983 18.471 23.0941 18.2343C23.4133 17.4534 24.1237 15.6943 23.7885 15.2763Z" fill="#FF9900"/>
</g>
</g>
</g>
<defs>
<clipPath id="clip0_2818_20427">
<rect width="24" height="24" fill="white" transform="translate(0.998047 0.000183105)"/>
</clipPath>
</defs>
</svg>

<svg xmlns="http://www.w3.org/2000/svg" width="25" height="24" fill="none"><g clip-path="url(#a)"><path fill="#252F3E" d="M7.762 10.409q.002.44.088.702c.063.174.143.363.255.568a.34.34 0 0 1 .056.181c0 .08-.048.158-.152.237l-.503.331a.4.4 0 0 1-.207.071c-.08 0-.16-.04-.24-.11a2.4 2.4 0 0 1-.287-.37 6 6 0 0 1-.247-.466Q5.59 12.64 4.178 12.64c-.67 0-1.205-.189-1.596-.568q-.588-.567-.59-1.514c0-.67.239-1.215.726-1.625.486-.41 1.133-.615 1.955-.615.271 0 .55.023.846.063s.599.102.918.173V7.98c0-.6-.128-1.017-.375-1.262q-.382-.364-1.301-.362c-.28 0-.567.031-.862.102a6.4 6.4 0 0 0-.862.268 2 2 0 0 1-.28.103.5.5 0 0 1-.127.023c-.112 0-.168-.078-.168-.244V6.22q-.002-.19.056-.276a.6.6 0 0 1 .223-.165 4.6 4.6 0 0 1 1.006-.355c.391-.103.806-.15 1.245-.15.95 0 1.644.213 2.091.639q.662.64.663 1.94v2.556zm-3.24 1.199c.263 0 .534-.047.821-.142a1.8 1.8 0 0 0 .759-.505c.127-.15.223-.315.271-.505a2.8 2.8 0 0 0 .08-.686v-.331a7 7 0 0 0-.734-.134 6 6 0 0 0-.75-.048c-.535 0-.927.103-1.19.316q-.393.318-.391.907-.002.554.295.836.288.294.838.292m6.409.852c-.144 0-.24-.024-.304-.079-.064-.047-.12-.158-.167-.308L8.584 5.976a1.4 1.4 0 0 1-.072-.316c0-.126.064-.197.192-.197h.782q.227-.002.311.079c.064.047.112.158.16.308l1.34 5.222 1.246-5.222q.058-.237.151-.308a.55.55 0 0 1 .32-.079h.638q.226-.002.32.079c.063.047.12.158.151.308l1.261 5.285 1.381-5.285c.048-.158.104-.26.16-.308a.53.53 0 0 1 .31-.079h.743c.128 0 .2.063.2.197 0 .04-.008.08-.016.127s-.024.11-.056.197l-1.924 6.097q-.072.236-.167.308a.5.5 0 0 1-.304.079h-.686c-.152 0-.255-.024-.32-.08-.063-.054-.119-.157-.15-.315l-1.238-5.087-1.23 5.08c-.04.157-.087.26-.15.315-.065.055-.176.079-.32.079zm10.256.213c-.415 0-.83-.047-1.23-.142-.399-.095-.71-.197-.917-.316-.128-.07-.216-.15-.248-.22a.6.6 0 0 1-.048-.221v-.403q.002-.246.184-.244.072 0 .144.023c.047.016.12.048.2.08.27.118.566.212.877.275.32.063.63.095.95.095.503 0 .894-.087 1.165-.26a.85.85 0 0 0 .415-.75.76.76 0 0 0-.215-.552q-.218-.223-.806-.41L20.5 9.273c-.582-.181-1.013-.45-1.277-.804a1.87 1.87 0 0 1-.399-1.144q0-.497.216-.876c.143-.252.335-.473.574-.647.24-.181.511-.315.83-.41.32-.095.655-.134 1.006-.134.176 0 .36.008.535.032.183.023.351.055.519.086q.239.058.455.127.215.07.335.142a.7.7 0 0 1 .24.197q.07.095.071.26v.37c0 .166-.064.253-.183.253a.8.8 0 0 1-.304-.094 3.7 3.7 0 0 0-1.532-.308c-.455 0-.814.07-1.062.22-.247.15-.375.38-.375.703 0 .22.08.41.24.56s.454.3.878.434l1.133.355q.864.272 1.237.757c.247.323.367.694.367 1.104 0 .34-.072.647-.207.915a2.1 2.1 0 0 1-.583.694c-.247.198-.543.34-.886.442-.36.11-.734.166-1.141.166"/><g fill="#F90" fill-rule="evenodd" clip-rule="evenodd"><path d="M22.695 16.507c-2.626 1.917-6.44 2.934-9.721 2.934-4.598 0-8.74-1.68-11.869-4.472-.247-.221-.024-.521.272-.347 3.384 1.94 7.558 3.115 11.876 3.115 2.913 0 6.114-.6 9.06-1.83.438-.197.813.284.382.6"/><path d="M23.789 15.276c-.336-.426-2.22-.205-3.073-.102-.256.031-.296-.19-.064-.355 1.5-1.042 3.967-.742 4.254-.395.287.355-.08 2.793-1.485 3.96-.215.182-.423.087-.327-.15.32-.78 1.03-2.54.694-2.958"/></g></g><defs><clipPath id="a"><path fill="#fff" d="M.998 0h24v24h-24z"/></clipPath></defs></svg>
